packages/ffe-icons/icons/filled/md/vacuum.svg

<svg xmlns="http://www.w3.org/2000/svg" height="24" viewBox="0 -960 960 960" width="24"><path d="M160.045-90q-45.814 0-77.93-32.071-32.114-32.07-32.114-77.884t32.07-77.929q32.07-32.115 77.884-32.115t77.929 32.07q32.115 32.07 32.115 77.884t-32.07 77.929q-32.07 32.115-77.884 32.115ZM160-150q20.846 0 35.424-14.577 14.577-14.578 14.577-35.424t-14.577-35.424Q180.846-250.001 160-250.001t-35.424 14.577Q109.999-220.846 109.999-200t14.577 35.424q14.578 14.577 35.424 14.577Zm204.23 59.998q-16.461 0-24.692-14.269-8.231-14.269-1.385-29.73 6.379-15.803 9.113-32.535 2.733-16.733 2.733-33.465 0-78.85-55.575-134.424Q238.85-389.999 160-389.999q-6.788 0-14 .371-7.212.372-14 1.859-16.461 2.616-29.23-7.23Q90-404.845 90-420.691v-97.001q0-29.827 21.241-51.067 21.24-21.24 51.067-21.24h47.693V-736q0-72.815 50.584-123.407 50.585-50.592 123.389-50.592 52.949 0 96.449 28.769 43.499 28.769 63.961 77.076l276.077 654.155H880q12.75 0 21.375 8.628 8.624 8.629 8.624 21.384 0 12.756-8.624 21.371Q892.75-90 880-90H680q-12.75 0-21.375-8.628-8.624-8.629-8.624-21.384 0-12.756 8.624-21.371 8.625-8.615 21.375-8.615h75.386L489.847-779.846q-13.539-31.693-42.317-50.924-28.779-19.231-63.53-19.231-47.135 0-80.568 33.433T269.999-736v146.001h74.615q62.154 0 106.077 43.923Q494.614-502.154 494.614-440v277.692q0 29.827-21.241 51.067-21.24 21.24-51.067 21.24H364.23Z"/></svg>

<svg xmlns="http://www.w3.org/2000/svg" height="24" viewBox="0 -960 960 960" width="24"><path d="M160.05-90q-45.82 0-77.93-32.07Q50-154.14 50-199.95q0-45.82 32.07-77.93Q114.14-310 159.95-310q45.82 0 77.93 32.07Q270-245.86 270-200.05q0 45.82-32.07 77.93Q205.86-90 160.05-90Zm-.05-60q20.85 0 35.42-14.58Q210-179.15 210-200t-14.58-35.42Q180.85-250 160-250t-35.42 14.58Q110-220.85 110-200t14.58 35.42Q139.15-150 160-150Zm204.23 60q-16.46 0-24.69-14.27T338.15-134q6.38-15.8 9.12-32.54Q350-183.27 350-200q0-78.85-55.58-134.42Q238.85-390 160-390q-6.79 0-14 .37t-14 1.86q-16.46 2.62-29.23-7.23Q90-404.85 90-420.69v-97q0-29.83 21.24-51.07Q132.48-590 162.31-590H210v-146q0-72.81 50.59-123.41Q311.17-910 383.97-910q52.95 0 96.45 28.77t63.96 77.08L820.46-150H880q12.75 0 21.37 8.63 8.63 8.63 8.63 21.38 0 12.76-8.63 21.37Q892.75-90 880-90H680q-12.75 0-21.37-8.63-8.63-8.63-8.63-21.38 0-12.76 8.63-21.37Q667.25-150 680-150h75.39L489.85-779.85q-13.54-31.69-42.32-50.92T384-850q-47.13 0-80.57 33.43Q270-783.13 270-736v146h74.61q62.16 0 106.08 43.92 43.92 43.93 43.92 106.08v277.69q0 29.83-21.24 51.07Q452.13-90 422.31-90h-58.08Z"/></svg>
